X:1
T: Mr. John Drewry
C:Muriel A Johnstone
R:Strathspey
%Q: 128
K:F
M:4/4
L:1/16
C4|F4 G3B Ac3 c4|B3d c3f eg3 g4|f4 f3c d3c Ac3|B3A G3F Ed3 c3A|
((3FGA) G3B Ac3 c4|((3Bcd) c3f eg3 g4|a4 a3f g3f df3|ca3 g3f f4 f3g|
a4 a3f g3f df3|cA3 f3F AG3 G4|A4 A3F G3F DF3|CA3 G3F F6 c2|
f4 f3c d3c Ac3|dc3 f3F AG3 G3A|((3FGA) B3d ((3cde) f3g|af3 c3e f4 G4|
d4 A3d D3F A3d|((3efg) f3e fd3 d3=B|c4 G3c C3E G3c|((3def) ((3fed) ec3 c3^c|
d4 A3d D3F A3d|eg3 f3e fd3 d3e|((3fed) c3A ((3BAG) F3D|EB3 A3G FD3 D4|
A4 f3d B4 ((3Bdf) |e4 e3c A4 A3G|F4 d3c B3A G3F|((3EFG) A3G FD3 D4|
A4 f3d B4 ((3Bdf) |e4 e3c A4 A3G|F4 d3c B3A G3F|((3EFG) A3F D4||
